X: 41347
T: Turnpike Gate, The
R: reel
M: 4/4
K: Gmajor
GEDE ~G3B|AD (3FED AD (3FED|GEDE GABd|1 eBdB A2BA:|2 eBdB G2Bd||
~g3b ~a3b|gabg agef|~g3b ~a3b|gedB A2Bd|
~g3b ~a3b|gabg aged|Beed edBd|gedB A2BA||

